X:1
T:Gleams of the Golden Morning
T:Gleams of the Golden Morning
T:S. J. Graham
T:S. J. Graham, 1900
T:Public Domain Courtesy of the Cyber Hymnal™
C:S. J. Graham
Z:Public Domain
Z:Courtesy of the Cyber Hymnal™
%%score ( 1 2 ) ( 3 4 )
L:1/8
Q:1/4=110
M:4/4
K:F
V:1 treble 
V:2 treble 
V:3 bass 
V:4 bass 
V:1
 (FG) | [FA]2 [FA]2 [FA]2 [FA][FA] | [FA]2 [CG]2 [CF]2 [CF]2 | [EG]2 [EG]2 [FA]2 [CG]2 | %4
w: 1.~The *|gold- en morn- ing is|fast ap- proach- ing;|Je- sus soon will|
w: 2.~The *|Gos- pel sum- mons will|soon be car- ried|To the na- tions|
w: 3.~At- *|tend- ed by all the|shin- ing an- gels,|Down the flam- ing|
w: 4.~There *|those loved ones who have|long been part- ed|Will all meet that|
 [CF]6 (FG) | [FA]2 [FA]2 [FA]2 [FA][FA] | [FA]2 [CG]2 [CF]2 [CF]2 | [EG]2 [EG]2 [FA]2 [CG]2 | %8
w: come To *|take His faith- ful and|hap- py child- ren|To their prom- ised|
w: round; The *|Bride- groom then wi- ll|cease to tar- ry|And the trum- pet|
w: sky The *|Judge will come, and will|take His peo- ple|Where they will not|
w: day; The *|tears of those who are|bro- ken- heart- ed|Will be wiped a-|
 [CF]6 ||"^Refrain" [FA][GB] | [Ac]2 [Ac]2 [Ac]2 [Ac][FA] | [CF]2 [CF]2 [DF]2 [CF]2 | %12
w: home.||||
w: sound.|O, we|see the gleams of the|gold- en morn- ing|
w: die.||||
w: way.||||
 [EG]2 [EG]2 [EG]2 F2 | [FA]2 [Fc]2 !fermata![Fc]2 [FA][GB] | [Ac]2 [Ac]2 [Ac]2 [Ac][FA] | %15
w: |||
w: Pierc- ing through this|night of gloom! O, we|see the gleams of the|
w: |||
w: |||
 [CF]2 [CF]2 [CF]2 [FA]2 | [EG]2 [EG]2 [FA]2 [EG]2 | [CF]6 |] %18
w: |||
w: gold- en morn- ing|That will burst the|tomb.|
w: |||
w: |||
V:2
 F2 | x8 | x8 | x8 | x6 F2 | x8 | x8 | x8 | x6 || x2 | x8 | x8 | x6 F2 | x8 | x8 | x8 | x8 | x6 |] %18
V:3
 (A,B,) | [F,C]2 [F,C]2 [F,C]2 [F,C][F,C] | [F,C]2 [F,B,]2 [F,A,]2 [F,A,]2 | %3
 [C,B,]2 [C,B,]2 [C,C]2 [C,B,]2 | [F,A,]6 (A,B,) | [F,C]2 [F,C]2 [F,C]2 [F,C][F,C] | %6
 [F,C]2 [F,B,]2 [F,A,]2 [F,A,]2 | [C,B,]2 [C,B,]2 [C,C]2 [C,B,]2 | [F,,A,]6 || [F,C][F,C] | %10
 [F,C]2 [F,C]2 [F,C]2 [F,C][F,C] | [F,A,]2 [F,A,]2 [F,B,]2 [F,A,]2 | %12
 [C,C]2 [C,C]2 [C,B,]2 [C,A,]2 | [F,C]2 [F,A,]2 !fermata![F,A,]2 [F,C][F,C] | %14
 [F,C]2 [F,C]2 [F,C]2 [F,C][F,C] | [F,A,]2 [F,A,]2 [F,A,]2 [F,C]2 | %16
 [C,B,]2 [C,B,]2 [C,C]2 [C,B,]2 | [F,,A,]6 |] %18
V:4
 F,2 | x8 | x8 | x8 | x6 F,2 | x8 | x8 | x8 | x6 || x2 | x8 | x8 | x8 | x8 | x8 | x8 | x8 | x6 |] %18

